coreui/free/cil-zoom-in.svg

<svg xmlns="http://www.w3.org/2000/svg" viewBox="0 0 512 512">
  <polygon fill="var(--ci-primary-color, currentColor)" points="208 96 176 96 176 176 96 176 96 208 176 208 176 288 208 288 208 208 288 208 288 176 208 176 208 96" class="ci-primary"/>
  <path fill="var(--ci-primary-color, currentColor)" d="M479.6,400.4l-81.084-81.084-62.368-25.767A175.008,175.008,0,0,0,368,192.687c0-97.047-78.953-176-176-176S16,95.64,16,192.687s78.953,176,176,176a175.028,175.028,0,0,0,101.619-32.378l25.7,62.2L400.4,479.6a56,56,0,0,0,79.2-79.2ZM48,192.687c0-79.4,64.6-144,144-144s144,64.6,144,144-64.6,144-144,144S48,272.088,48,192.687ZM456.971,456.971a24.029,24.029,0,0,1-33.942,0L346.457,380.4l-23.894-57.835L380.4,346.457l76.573,76.572A24.029,24.029,0,0,1,456.971,456.971Z" class="ci-primary"/>
</svg>

<svg viewBox="0 0 512 512" xmlns="http://www.w3.org/2000/svg"><g><path d="M208 96l-32 0 0 80 -80 0 0 32 80 0 0 80 32 0 0-80 80 0 0-32 -80 0 0-80Z"/><path d="M479.6 400.4l-81.084-81.084 -62.37-25.77v0c20.76-29.54 31.89-64.77 31.85-100.87 0-97.05-78.96-176-176-176 -97.05 0-176 78.95-176 176 0 97.04 78.953 176 176 176h-.001c36.41.04 71.93-11.28 101.61-32.38l25.7 62.2 81.08 81.09h0c21.87 21.87 57.32 21.87 79.2-.001 21.87-21.88 21.87-57.33 0-79.2ZM48 192.68c0-79.4 64.6-144 144-144s144 64.6 144 144 -64.6 144-144 144 -144-64.6-144-144Zm408.97 264.28v0c-9.38 9.35-24.57 9.35-33.95 0l-76.572-76.58 -23.9-57.84 57.83 23.89L456.94 423v0c9.35 9.37 9.35 24.56-.01 33.94Z"/></g></svg>
